X: 8
T: The Goodnatured Man
R: hornpipe
M: 4/4
L: 1/8
K: Gmaj
|: (3def | g2 b>g d2 g>d | B>cd>B G2 A>B | c2 e>c A2 c>A | F>GA>B c>de>f |
g2 b>g d2 g>d | B>cd>B G2 A>B | c>ed>c B>AG>F | A2 G2 G2 :|
|: B>c | d>Bd>B g2 g2 | e>ce>c a2 a2 | f2 f2 g2 g2 | a>gf>e d>ef>d |
g2 b>g d2 g>d | B>cd>B G2 A>B | c>ed>c B>AG>F | A2 G2 G2 :|


Tune 312	Setting 21001

